packages/icons/raw/imported/SecurityUmbrella.svg

<svg width="32" height="32" viewBox="0 0 32 32" fill="none" xmlns="http://www.w3.org/2000/svg">
<path d="M22.364 10.4409L22.014 10.798L22.364 10.4409ZM9.63605 10.4409L9.28606 10.0838L9.63605 10.4409ZM7.05774 15.6807L7.5544 15.7384L7.05774 15.6807ZM8.00001 16.6786L8.00001 16.1786L8.00001 16.6786ZM24.9423 15.6807L25.4389 15.6231L24.9423 15.6807ZM16 21.3572L15.5 21.3572V21.3572H16ZM10.9615 21.3572C10.9615 21.081 10.7377 20.8572 10.4615 20.8572C10.1854 20.8572 9.96151 21.081 9.96151 21.3572H10.9615ZM16.5 6.49999C16.5 6.22385 16.2761 6 16 6C15.7238 6 15.5 6.22386 15.5 6.50001L16.5 6.49999ZM25.4389 15.6231C25.1966 13.5364 24.2413 11.5808 22.714 10.0838L22.014 10.798C23.3789 12.1358 24.2299 13.8804 24.4456 15.7384L25.4389 15.6231ZM22.714 10.0838C20.9316 8.33683 18.5164 7.35714 16 7.35714V8.35714C18.2575 8.35714 20.4207 9.23625 22.014 10.798L22.714 10.0838ZM16 7.35714C13.4837 7.35714 11.0684 8.33683 9.28606 10.0838L9.98604 10.798C11.5794 9.23625 13.7425 8.35714 16 8.35714V7.35714ZM9.28606 10.0838C7.75873 11.5808 6.80339 13.5364 6.56108 15.6231L7.5544 15.7384C7.77017 13.8804 8.62116 12.1358 9.98604 10.798L9.28606 10.0838ZM8.00001 17.1786L16 17.1786V16.1786L8.00001 16.1786L8.00001 17.1786ZM16 17.1786H24V16.1786H16V17.1786ZM6.56108 15.6231C6.45836 16.5076 7.18934 17.1786 8.00001 17.1786L8.00001 16.1786C7.70611 16.1786 7.52971 15.9511 7.5544 15.7384L6.56108 15.6231ZM24.4456 15.7384C24.4703 15.9511 24.2939 16.1786 24 16.1786V17.1786C24.8107 17.1786 25.5417 16.5076 25.4389 15.6231L24.4456 15.7384ZM15.5 16.6786L15.5 21.3572L16.5 21.3572L16.5 16.6786L15.5 16.6786ZM15.5 21.3572C15.5 22.6223 14.4812 23.6429 13.2307 23.6429V24.6429C15.0391 24.6429 16.5 23.169 16.5 21.3572H15.5ZM13.2307 23.6429C11.9803 23.6429 10.9615 22.6223 10.9615 21.3572H9.96151C9.96151 23.169 11.4224 24.6429 13.2307 24.6429V23.6429ZM15.5 6.50001L15.5 7.85715L16.5 7.85714L16.5 6.49999L15.5 6.50001Z" fill="black"/>
</svg>

<svg width="32" height="32" fill="none" xmlns="http://www.w3.org/2000/svg"><path d="m22.364 10.44-.35.358.35-.357Zm-12.728 0-.35-.356.35.357Zm-2.578 5.24.496.058-.496-.057ZM8 16.68v-.5.5Zm16.942-.998.497-.058-.497.058ZM16 21.357h-.5.5Zm-5.039 0a.5.5 0 1 0-1 0h1ZM16.5 6.5a.5.5 0 0 0-1 0h1Zm8.939 9.123a9.253 9.253 0 0 0-2.725-5.54l-.7.715a8.252 8.252 0 0 1 2.432 4.94l.993-.115Zm-2.725-5.54A9.593 9.593 0 0 0 16 7.358v1c2.258 0 4.42.88 6.014 2.441l.7-.714ZM16 7.358c-2.516 0-4.932.98-6.714 2.727l.7.714A8.593 8.593 0 0 1 16 8.358v-1Zm-6.714 2.727a9.253 9.253 0 0 0-2.725 5.54l.993.114a8.253 8.253 0 0 1 2.432-4.94l-.7-.714ZM8 17.179h8v-1H8v1Zm8 0h8v-1h-8v1Zm-9.439-1.556c-.103.885.628 1.556 1.439 1.556v-1c-.294 0-.47-.228-.446-.44l-.993-.116Zm17.885.115c.024.213-.152.44-.446.44v1c.81 0 1.542-.67 1.439-1.555l-.993.115Zm-8.946.94v4.68h1v-4.68h-1Zm0 4.68a2.278 2.278 0 0 1-2.27 2.285v1a3.278 3.278 0 0 0 3.27-3.286h-1Zm-2.27 2.285c-1.25 0-2.269-1.02-2.269-2.286h-1a3.278 3.278 0 0 0 3.27 3.286v-1ZM15.5 6.5v1.357h1V6.5h-1Z" fill="#000"/></svg>
